Sources/FrostedUI/Resources/Icons.xcassets/sunSize16.imageset/sun-size-16.svg

<svg
  width="16"
  height="16"
  viewBox="0 0 16 16"
  fill="none"
  xmlns="http://www.w3.org/2000/svg"
  data-fui-icon="true"
>
  <path
    d="M7.99878 2.19388V1.17838M3.89322 12.1057L3.17515 12.8238M7.99878 14.8218V13.8063M12.8223 3.17645L12.1041 3.89452M13.8047 8.00006H14.8202M12.1041 12.1057L12.8223 12.8238M1.17706 8.00006H2.19257M3.1751 3.17641L3.89316 3.89448M10.4736 5.5252C11.8404 6.89206 11.8404 9.10813 10.4736 10.4749C9.10672 11.8418 6.89065 11.8418 5.52381 10.4749C4.15697 9.10813 4.15697 6.89206 5.52381 5.5252C6.89065 4.15837 9.10672 4.15837 10.4736 5.5252Z"
    stroke="currentColor"
    stroke-width="1.5"
    stroke-linecap="round"
    stroke-linejoin="round"
  />
</svg>

<svg xmlns="http://www.w3.org/2000/svg" width="16" height="16" fill="none" data-fui-icon="true" viewBox="0 0 16 16"><path stroke="currentColor" stroke-linecap="round" stroke-linejoin="round" stroke-width="1.5" d="M7.999 2.194V1.178M3.893 12.106l-.718.718M8 14.822v-1.016m4.823-10.63-.718.719M13.804 8h1.016m-2.716 4.106.718.718M1.177 8h1.016m.982-4.824.718.718m6.58 1.631a3.5 3.5 0 1 1-4.95 4.95 3.5 3.5 0 0 1 4.95-4.95"/></svg>
